X:1
T:[ID 4-31va]
T:[ID 4-31va]
T:Bezeichnung standardisiert: Tantz B\"auerisch; Tantz Bauerisch In dieser Quelle auch als: B\"auerscher In dieser Quelle auch als: Schwabisch
T:Urheber unbekannt Datum in der hier transkribierten schriftlichen Quelle: 1767
C:Urheber unbekannt
C:Datum in der hier transkribierten schriftlichen Quelle: 1767
L:1/8
M:3/8
K:D
V:1 treble 
V:1
 dfd | ecA | dfd | e2 e | df/d/f/d/ | eg/f/g/e/ | fe/d/e/c/ | d2 d :| ff/g/a/f/ | AAA | ff/g/a/f/ | %11
 A2 A | df/d/f/d/ | eg/e/g/e/ | fe/d/e/c/ | d2 d :| %16

